site/img/logos/byteflair.svg

<?xml version="1.0" encoding="UTF-8"?>
<svg width="400px" height="400px" viewBox="0 0 400 400" version="1.1" xmlns="http://www.w3.org/2000/svg" xmlns:xlink="http://www.w3.org/1999/xlink">
    <title>logos/byteflair</title>
    <g id="logos/byteflair" stroke="none" stroke-width="1" fill="none" fill-rule="evenodd">
        <path d="M94.2026161,238.546503 L105.826075,264.335228 L117.567638,238.546503 L127.722678,238.546503 L99.2885656,301 L89.1335255,301 L100.998369,274.940136 L84.047576,238.546503 L94.2026161,238.546503 Z M42.7357027,211.635647 L42.7359248,243.971885 C46.9491511,237.517412 52.9397475,234.824642 59.7574192,234.824642 C74.2058801,234.824642 85.9186719,246.383421 85.9186719,260.641897 C85.9186719,274.900374 74.2058801,286.459153 59.7574192,286.459153 C57.0107105,286.459153 54.3628675,286.041424 51.8755653,285.266832 L51.8756497,276.415594 C54.1111754,277.554355 56.6087787,278.229504 59.2439649,278.229504 C68.8004839,278.229504 76.5475731,270.365754 76.5475731,260.665326 C76.5475731,250.964898 68.8004839,243.101148 59.2439649,243.101148 C51.5005975,243.101148 44.9451906,248.930722 42.7364248,256.303179 L42.7357027,284.751936 L33.5961666,284.751936 L33.5961666,211.635647 L42.7357027,211.635647 Z M286.698517,234.824642 C293.385079,234.824642 299.276071,237.41484 303.474975,243.603678 L303.720011,243.971885 L303.720233,238.546503 L312.859769,238.546503 L312.859769,284.751936 L303.720233,284.751936 L303.719511,256.303179 C301.510745,248.930722 294.955338,243.101148 287.211971,243.101148 C277.655452,243.101148 269.908363,250.964898 269.908363,260.665326 C269.908363,270.365754 277.655452,278.229504 287.211971,278.229504 C289.692146,278.229504 292.050449,277.631448 294.183086,276.611696 L294.580286,276.415594 L294.580371,285.266832 C292.093068,286.041424 289.445225,286.459153 286.698517,286.459153 C272.250056,286.459153 260.537264,274.900374 260.537264,260.641897 C260.537264,246.383421 272.250056,234.824642 286.698517,234.824642 Z M184.874034,234.854888 C199.328888,234.854888 211.059374,246.29712 211.166322,260.451918 L168.125931,260.647104 C168.125931,269.316897 174.328384,278.183886 184.874034,278.183886 C191.556736,278.183886 196.495356,274.6232 199.216768,269.808389 L208.063626,272.813962 C203.63262,280.923648 194.909961,286.439319 184.874034,286.439319 C170.352797,286.439319 158.581009,274.891751 158.581009,260.647104 C158.581009,246.402457 170.352797,234.854888 184.874034,234.854888 Z M240.443623,217.643013 L237.68049,225.171899 C232.2767,222.093405 226.892496,224.065406 226.812365,230.377349 L226.812271,238.546444 L235.533205,238.546503 L235.533205,246.670535 L226.812271,246.670476 L226.811643,284.751936 L217.672107,284.751936 L217.649339,246.65361 L217.649339,246.65361 L213.690943,246.670535 L213.690943,238.546503 L217.651957,238.542381 L217.672107,230.595028 L217.672107,230.595028 C217.717647,225.995509 219.700219,221.820686 223.50211,218.473688 C227.304002,215.12669 235.533205,215.168342 240.443623,217.643013 Z M333.776028,238.546503 L333.776028,284.751936 L324.636492,284.751936 L324.636492,238.546503 L333.776028,238.546503 Z M251.398968,211.635647 L251.398968,284.751936 L242.259431,284.751936 L242.259431,211.635647 L251.398968,211.635647 Z M361.985904,237.847776 L366.403833,245.429212 C360.264373,246.482797 355.305981,250.35432 353.480652,257.288205 L353.47993,284.751936 L344.340394,284.751936 L344.340394,238.546503 L353.47993,238.546503 L353.480152,244.553869 C355.404995,240.852809 358.455006,238.869051 361.985904,237.847776 Z M148.017883,220.814355 L148.017883,238.546071 L156.649667,238.546503 L156.649667,246.670535 L148.017883,246.670103 L148.017883,284.751936 L138.878346,284.751936 L138.878346,246.670103 L130.246562,246.670535 L130.246562,238.546503 L138.878346,238.546071 L138.878346,220.814355 L148.017883,220.814355 Z M184.874034,243.110321 C176.446147,243.110321 171.792727,247.092154 169.639721,252.328168 L200.108346,252.328168 C197.95534,247.092154 193.30192,243.110321 184.874034,243.110321 Z M329.20626,225.711138 C331.730073,225.711138 333.776028,227.757092 333.776028,230.280906 C333.776028,232.804719 331.730073,234.850674 329.20626,234.850674 C326.682447,234.850674 324.636492,232.804719 324.636492,230.280906 C324.636492,227.757092 326.682447,225.711138 329.20626,225.711138 Z M190.538146,155.256084 C190.676654,164.201742 192.088013,171.271182 194.772223,176.464403 C198.798537,184.254235 207.08025,190.286758 217.740563,194.593229 C208.322854,198.049479 199.596197,198.596404 191.560592,196.234002 C186.897273,189.846772 184.565614,182.906503 184.565614,175.413194 C184.565614,167.919885 186.556458,161.200849 190.538146,155.256084 Z M183.55854,20.7268434 C187.545186,21.8954003 193.071948,25.8166771 200.138824,32.490674 L200.138824,54.0609609 L217.649337,54.0609609 L217.649337,76.2433766 L232.876432,76.2433766 L232.876432,83.641482 L240.833362,83.641482 L240.833362,91.0614049 L248.709469,91.0614049 C259.925631,109.72096 264.361519,126.455455 262.017133,141.264889 C258.309436,164.686323 245.841083,181.387431 224.612074,191.36821 C235.426266,178.282026 240.833362,165.648224 240.833362,153.466804 C240.833362,141.285384 237.320378,131.915938 230.294409,125.358466 L229.508235,126.260098 C221.839017,134.978375 215.983795,139.337513 211.942571,139.337513 C218.537397,124.448083 214.866607,102.328144 197.668492,91.0614049 L197.490609,92.1315386 C195.833226,101.695723 192.054154,112.592089 178.987772,120.707334 L178.493416,121.010344 C164.528748,129.457671 157.927972,144.24099 162.081721,162.724849 C164.850886,175.047421 172.448324,185.842771 184.874034,195.110898 C156.958913,184.13605 141.339423,165.544922 138.015565,139.337513 C133.029777,100.026401 168.887283,95.6450568 183.55854,20.7268434 Z M242.259431,52.2015175 L242.259431,70.967516 L223.493433,70.967516 L223.493433,52.2015175 L242.259431,52.2015175 Z M222.875354,32.490674 L222.875354,49.1341797 L206.231848,49.1341797 L206.231848,32.490674 L222.875354,32.490674 Z M242.259431,27.8085955 L242.259431,39.7736178 L230.294409,39.7736178 L230.294409,27.8085955 L242.259431,27.8085955 Z M259.599361,0 L259.599361,18.7659984 L240.833362,18.7659984 L240.833362,0 L259.599361,0 Z M232.876432,7.66158851 L232.876432,16.2261227 L224.311898,16.2261227 L224.311898,7.66158851 L232.876432,7.66158851 Z" id="Shape" fill="#FFFFFF"></path>
    </g>
</svg>

<svg width="400" height="400" viewBox="0 0 400 400" xmlns="http://www.w3.org/2000/svg"><path d="M94.203 238.547l11.623 25.788 11.742-25.788h10.155L99.289 301H89.134l11.864-26.06-16.95-36.393h10.155zm-51.467-26.911v32.336c4.213-6.455 10.204-9.147 17.021-9.147 14.449 0 26.162 11.558 26.162 25.817 0 14.258-11.713 25.817-26.162 25.817a26.47 26.47 0 01-7.881-1.192v-8.851c2.235 1.138 4.733 1.814 7.368 1.814 9.556 0 17.304-7.864 17.304-17.565 0-9.7-7.748-17.564-17.304-17.564-7.743 0-14.299 5.83-16.508 13.202v28.449h-9.14v-73.116h9.14zm243.963 23.189c6.686 0 12.577 2.59 16.776 8.779l.245.368v-5.425h9.14v46.205h-9.14v-28.449c-2.21-7.372-8.765-13.202-16.508-13.202-9.557 0-17.304 7.864-17.304 17.564s7.747 17.565 17.304 17.565c2.48 0 4.838-.599 6.971-1.618l.397-.196v8.85a26.47 26.47 0 01-7.881 1.193c-14.449 0-26.162-11.559-26.162-25.817 0-14.259 11.713-25.817 26.162-25.817zm-101.825.03c14.455 0 26.185 11.442 26.292 25.597l-43.04.195c0 8.67 6.202 17.537 16.748 17.537 6.683 0 11.621-3.56 14.343-8.376l8.847 3.006c-4.431 8.11-13.154 13.625-23.19 13.625-14.521 0-26.293-11.547-26.293-25.792 0-14.245 11.772-25.792 26.293-25.792zm55.57-17.212l-2.764 7.529c-5.403-3.079-10.788-1.107-10.868 5.205v8.17h8.721v8.124h-8.72l-.001 38.08h-9.14l-.023-38.097-3.958.017v-8.124l3.961-.005.02-7.947c.046-4.6 2.028-8.774 5.83-12.121 3.802-3.347 12.031-3.306 16.942-.831zm93.332 20.904v46.205h-9.14v-46.205h9.14zm-82.377-26.911v73.116h-9.14v-73.116h9.14zm110.587 26.212l4.418 7.581c-6.14 1.054-11.098 4.925-12.923 11.86l-.001 27.463h-9.14v-46.205h9.14v6.007c1.925-3.701 4.975-5.685 8.506-6.706zm-213.968-17.034v17.732h8.632v8.125h-8.632v38.08h-9.14v-38.08h-8.631v-8.124h8.631v-17.733h9.14zm36.856 22.296c-8.428 0-13.081 3.982-15.234 9.218h30.468c-2.153-5.236-6.806-9.218-15.234-9.218zm144.332-17.399a4.57 4.57 0 110 9.14 4.57 4.57 0 010-9.14zm-138.668-70.455c.139 8.946 1.55 16.015 4.234 21.208 4.027 7.79 12.308 13.823 22.969 18.13-9.418 3.455-18.145 4.002-26.18 1.64-4.664-6.387-6.995-13.327-6.995-20.82 0-7.494 1.99-14.213 5.972-20.158zm-6.98-134.53c3.987 1.17 9.514 5.09 16.58 11.765v21.57h17.511v22.182h15.227v7.398h7.957v7.42h7.876c11.217 18.66 15.653 35.394 13.308 50.204-3.708 23.421-16.176 40.122-37.405 50.103 10.814-13.086 16.221-25.72 16.221-37.901 0-12.182-3.513-21.551-10.539-28.109l-.786.902c-7.669 8.718-13.524 13.078-17.565 13.078 6.594-14.89 2.924-37.01-14.275-48.277l-.177 1.07c-1.658 9.565-5.437 20.461-18.503 28.576l-.495.303c-13.964 8.448-20.565 23.231-16.411 41.715 2.769 12.322 10.366 23.118 22.792 32.386-27.915-10.975-43.535-29.566-46.858-55.773-4.986-39.312 30.871-43.693 45.543-118.611zm58.701 31.476v18.766h-18.766V52.202h18.766zM222.875 32.49v16.643h-16.643V32.491h16.643zm19.384-4.682v11.965h-11.965V27.809h11.965zM259.6 0v18.766h-18.766V0H259.6zm-26.723 7.662v8.564h-8.564V7.662h8.564z" fill="#FFF" fill-rule="evenodd"/></svg>
